assets/Woman mage/Light/Flat/woman_mage_flat_light.svg

<svg width="32" height="32" viewBox="0 0 32 32" fill="none" xmlns="http://www.w3.org/2000/svg">
<path d="M10.2 10.11L10.02 10.46H21.92L21.75 10.13C21.5558 9.75039 21.3274 9.25474 21.0695 8.69536C20.5539 7.57687 19.9208 6.20338 19.209 4.99212L21.449 5.00264C22.0907 5.00264 22.377 4.17264 21.8636 3.78264C20 2.50003 18.1719 2 15.97 2C13.9802 2 12.1312 5.98955 10.9117 8.62092C10.6419 9.20305 10.4029 9.71871 10.2 10.11Z" fill="#0074BA"/>
<path d="M9.7901 10.15L9.6001 10.53H22.3401L22.1601 10.17C21.8401 9.55 21.4401 8.99 20.9701 8.5H10.9701C10.5101 8.99 10.1101 9.54 9.7901 10.15Z" fill="#533566"/>
<path d="M22.9479 18.4996L23.5522 18.5C26 18.5 27.99 16.4843 28 14.005C28 11.5258 26.01 9.51008 23.5622 9.51008L8.43781 9.5C5.99005 9.5 4 11.5157 4 13.995C4 16.4742 5.99005 18.4899 8.42786 18.4899L9.07323 18.4904C9.00132 18.6132 8.9388 18.7434 8.88677 18.8801C8.50606 19.8801 8.76654 20.9901 9.55802 21.7101L9.82852 21.9501C9.44781 22.2201 9.08714 22.5101 8.74651 22.8301C7.44408 24.0501 6.4322 25.6001 5.87116 27.3801L5.8411 27.4601C5.58062 28.2801 5.38024 29.15 5.25 30H26.75C26.6198 29.14 26.4294 28.2601 26.1689 27.4201C25.5979 25.6101 24.576 24.0301 23.2435 22.8001C22.9129 22.4901 22.5522 22.2101 22.1915 21.9401L22.452 21.7001C23.2435 20.9801 23.504 19.8701 23.1233 18.8701C23.0739 18.7405 23.0152 18.6168 22.9479 18.4996Z" fill="#00A6ED"/>
<path d="M9.06489 18H22.9351C25.1758 18 27 16.4364 27 14.5104C27 12.574 25.1857 11.0104 22.9351 11.0104L9.06489 11C6.82424 11 5 12.5636 5 14.5C5 16.4364 6.81433 18 9.06489 18Z" fill="#0074BA"/>
<path d="M15.9978 18.15L20.6788 18.18C21.6548 18.18 22.1229 19.39 21.3958 20.05L15.9978 24.98L10.5997 20.05C9.88264 19.39 10.3408 18.19 11.3168 18.18L15.9978 18.15Z" fill="#0074BA"/>
<path d="M17.1741 21.0712H16.1218H15.0696C14.7927 21.0712 14.5158 21.0509 14.25 21L15.6013 23.7379C15.7785 24.0941 16.3323 24.0839 16.4984 23.7277L17.75 21.0407C17.5728 21.0611 17.3734 21.0712 17.1741 21.0712Z" fill="#F4C6AD"/>
<path d="M10.71 11.01H11.32L14.0033 11.003L14 11H21.6C22.05 11.88 22.31 12.88 22.31 13.94C22.31 15.52 21.6702 17.0747 20.7202 18.1947C20.7902 17.8847 20.8402 17.5547 20.8502 17.2147L21.0315 13.7115C21.0415 13.4815 21.0315 13.2615 21.0015 13.0415C20.8588 12.2979 20.3936 12.6367 20.0989 12.8514C20.0012 12.9225 19.9223 12.98 19.88 12.98H16.6C15.8831 12.98 15.1935 12.2425 14.5958 11.6034L14.564 11.5694C14.4464 11.6507 14.3212 11.7213 14.19 11.78L13.771 11.9234C13.0219 12.1298 11.2583 12.6159 11.25 13.57V13.73L11.39 17.13C11.41 17.47 11.45 17.8 11.52 18.11C10.57 16.99 10 15.54 10 13.95C10 12.89 10.26 11.89 10.71 11.01Z" fill="#D3D3D3"/>
<path d="M12.5 16C12.5 16.8284 11.8284 17.5 11 17.5C10.1716 17.5 9.5 16.8284 9.5 16C9.5 15.1716 10.1716 14.5 11 14.5C11.8284 14.5 12.5 15.1716 12.5 16Z" fill="#F4C6AD"/>
<path d="M22.5 16C22.5 16.8284 21.8284 17.5 21 17.5C20.1716 17.5 19.5 16.8284 19.5 16C19.5 15.1716 20.1716 14.5 21 14.5C21.8284 14.5 22.5 15.1716 22.5 16Z" fill="#F4C6AD"/>
<path d="M11.8031 11.7771C11.2826 12.1062 10.7116 12.6846 10.752 13.7375L10.8933 17.1468C11.0145 20.0547 13.2655 22 16.0011 22C18.7366 22 20.9876 20.0547 21.1088 17.1468L21.2501 13.7375C21.2501 12.4979 20.8879 12.0278 20.2104 12.0278C20.2104 12.0278 16.724 11.9025 15.825 11.8712C14.926 11.8398 14.1216 11 14.1216 11H12.6705C12.6705 11 12.3237 11.4481 11.8031 11.7771Z" fill="#FFD7C2"/>
<path d="M13.2699 14.6C13.8499 14.6 14.3199 15 14.6199 15.45C14.4031 15.5141 14.191 15.5745 13.9809 15.6343C13.5031 15.7703 13.0362 15.9033 12.5499 16.07L12.0599 15.63C11.8599 15.45 11.8799 15.12 12.0999 14.96C12.4199 14.73 12.8599 14.6 13.2699 14.6Z" fill="black"/>
<path d="M18.6601 14.6C18.0801 14.6 17.6101 15 17.3101 15.45C17.5269 15.5141 17.739 15.5745 17.949 15.6343C18.4269 15.7703 18.8938 15.9033 19.3801 16.07L19.8701 15.63C20.0701 15.45 20.0501 15.12 19.8301 14.96C19.5101 14.73 19.0701 14.6 18.6601 14.6Z" fill="black"/>
<path d="M12.05 15.79C12.21 15.16 12.78 14.7 13.45 14.7C14.15 14.7 14.73 15.2 14.87 15.86C14.89 16.01 14.78 16.14 14.63 16.14H12.33C12.14 16.14 12.01 15.97 12.05 15.79Z" fill="white"/>
<path d="M19.88 15.79C19.72 15.16 19.15 14.7 18.48 14.7C17.78 14.7 17.2 15.2 17.06 15.86C17.04 16.01 17.15 16.14 17.3 16.14H19.6C19.79 16.14 19.92 15.97 19.88 15.79Z" fill="white"/>
<path d="M12.74 15.8999C12.74 15.3899 13.15 14.9799 13.66 14.9799C14.17 14.9799 14.58 15.3899 14.57 15.8999C14.57 15.9799 14.56 16.0599 14.54 16.1399H12.77C12.75 16.0699 12.74 15.9799 12.74 15.8999Z" fill="#7D4533"/>
<path d="M19.19 15.8999C19.19 15.3899 18.78 14.9799 18.27 14.9799C17.76 14.9799 17.35 15.3899 17.36 15.8999C17.36 15.9799 17.37 16.0599 17.39 16.1399H19.16C19.18 16.0699 19.19 15.9799 19.19 15.8999Z" fill="#7D4533"/>
<path d="M13.6599 15.3699C13.9499 15.3699 14.1899 15.6099 14.1899 15.8999C14.1899 15.9899 14.1699 16.0699 14.1199 16.1399H13.1899C13.1499 16.0699 13.1299 15.9899 13.1299 15.8999C13.1299 15.6099 13.3699 15.3699 13.6599 15.3699Z" fill="black"/>
<path d="M18.27 15.3699C17.98 15.3699 17.74 15.6099 17.74 15.8999C17.74 15.9899 17.77 16.0699 17.8 16.1399H18.74C18.78 16.0699 18.8 15.9899 18.8 15.8999C18.8 15.6099 18.56 15.3699 18.27 15.3699Z" fill="black"/>
<path d="M13.5099 15.53C13.5099 15.6184 13.4383 15.69 13.3499 15.69C13.2616 15.69 13.1899 15.6184 13.1899 15.53C13.1899 15.4416 13.2616 15.37 13.3499 15.37C13.4383 15.37 13.5099 15.4416 13.5099 15.53Z" fill="white"/>
<path d="M18.12 15.53C18.12 15.6184 18.0484 15.69 17.96 15.69C17.8717 15.69 17.8 15.6184 17.8 15.53C17.8 15.4416 17.8717 15.37 17.96 15.37C18.0484 15.37 18.12 15.4416 18.12 15.53Z" fill="white"/>
<path d="M16.0034 19.2386C15.4464 19.2386 14.9307 19.0986 14.4975 18.8616C14.3531 18.7754 14.1881 18.9585 14.2809 19.1093C14.6522 19.7017 15.2814 20.0895 16.0034 20.0895C16.7254 20.0895 17.3649 19.7017 17.7259 19.1093C17.8187 18.9585 17.664 18.7862 17.5093 18.8616C17.0761 19.0986 16.5604 19.2386 16.0034 19.2386Z" fill="#990838"/>
<path d="M15.6435 15.7861L15.1492 17.5284C15.0447 17.8892 15.2918 18.25 15.634 18.25H16.366C16.7082 18.25 16.9553 17.8892 16.8508 17.5284L16.3565 15.7861C16.2519 15.4046 15.7576 15.4046 15.6435 15.7861Z" fill="#E5AF93"/>
<path d="M12.4485 14.2566L12.4527 14.2543C12.4571 14.2519 12.4645 14.2479 12.4747 14.2425C12.4951 14.2319 12.5266 14.2161 12.5679 14.1972C12.6506 14.1593 12.7712 14.1097 12.9188 14.0649C13.2166 13.9744 13.6091 13.9078 14.0174 13.9817C14.1785 14.0108 14.3327 13.9039 14.3618 13.7428C14.391 13.5817 14.284 13.4275 14.1229 13.3984C13.5912 13.3022 13.0987 13.3907 12.7465 13.4977C12.5691 13.5516 12.4234 13.6113 12.3212 13.6582L12.1537 13.7423L12.1526 13.743C12.0109 13.8249 11.9616 14.0067 12.0436 14.1484C12.1255 14.2901 12.3068 14.3386 12.4485 14.2566Z" fill="#9B9B9B"/>
<path d="M19.8567 14.1484C19.9387 14.0067 19.8901 13.8253 19.7484 13.7433L19.7466 13.7423L19.6997 13.7169C19.6711 13.702 19.6304 13.6816 19.5791 13.6582C19.4768 13.6113 19.3312 13.5516 19.1538 13.4977C18.8016 13.3907 18.309 13.3022 17.7774 13.3984C17.6163 13.4275 17.5093 13.5817 17.5385 13.7428C17.5676 13.9039 17.7218 14.0108 17.8829 13.9817C18.2912 13.9078 18.6837 13.9744 18.9815 14.0649C19.1291 14.1097 19.2497 14.1593 19.3324 14.1972C19.3736 14.2161 19.4052 14.2319 19.4256 14.2425C19.4358 14.2479 19.4432 14.2519 19.4476 14.2543L19.452 14.2568C19.5937 14.3385 19.7748 14.29 19.8567 14.1484Z" fill="#9B9B9B"/>
<g opacity="0.5">
<path d="M14.1506 16.6889C14.2618 16.5737 14.4453 16.5699 14.5612 16.6806C14.6774 16.7917 14.6816 16.9759 14.5705 17.0922L14.4659 17.1867C14.4039 17.2375 14.3142 17.3035 14.1991 17.369C13.9691 17.5001 13.6322 17.6322 13.21 17.6322C13.0493 17.6322 12.9189 17.5018 12.9189 17.3411C12.9189 17.1803 13.0493 17.05 13.21 17.05C13.5079 17.05 13.746 16.9571 13.911 16.8631C13.9934 16.8162 14.0562 16.7697 14.0973 16.7361C14.1177 16.7194 14.1325 16.706 14.1414 16.6977L14.1506 16.6889Z" fill="#F1B99B"/>
<path d="M17.339 16.6806C17.4553 16.5695 17.6395 16.5737 17.7506 16.69L17.9892 16.8631C18.1541 16.9571 18.3923 17.05 18.6901 17.05C18.8509 17.05 18.9812 17.1803 18.9812 17.3411C18.9812 17.5018 18.8509 17.6322 18.6901 17.6322C18.268 17.6322 17.9311 17.5001 17.701 17.369C17.586 17.3035 17.4963 17.2375 17.4342 17.1867L17.3297 17.0922C17.2186 16.9759 17.2228 16.7917 17.339 16.6806Z" fill="#F1B99B"/>
</g>
<path d="M27 23C27.5545 23 28 23.4054 28 23.9099V26H26V23.9099C26 23.4054 26.4455 23 27 23Z" fill="#F4C6AD"/>
<path d="M27.25 5.30001C27.05 5.19001 26.8 5.34001 26.8 5.57001V7.19001C26.8 7.63001 26.44 8.00001 26 7.99001C25.58 7.98001 25.23 7.64001 25.23 7.21001V5.57001C25.23 5.34001 24.98 5.19001 24.78 5.30001C23.97 5.74001 23.42 6.59001 23.41 7.57001C23.4 8.58001 23.99 9.47001 24.84 9.91001C24.94 9.96001 25 10.06 25 10.17V26.08C25 26.65 25.47 27.12 26.04 27.12C26.61 27.12 27 26.65 27 26.08V10.17C27 10.06 27.14 9.94001 27.24 9.89001C28.06 9.45001 28.62 8.59001 28.62 7.59001C28.62 6.60001 28.07 5.74001 27.25 5.30001Z" fill="#F3AD61"/>
<path d="M26 8.96997C27.5188 8.96997 28.75 7.73875 28.75 6.21997C28.75 4.70119 27.5188 3.46997 26 3.46997C24.4812 3.46997 23.25 4.70119 23.25 6.21997C23.25 7.73875 24.4812 8.96997 26 8.96997Z" fill="#00D1ED"/>
<path d="M27.69 4.64002C28.03 5.10002 28 5.70002 27.62 5.98002C27.24 6.26002 26.66 6.11002 26.32 5.65002C25.97 5.19002 26 4.59002 26.38 4.31002C26.76 4.03002 27.35 4.18002 27.69 4.64002Z" fill="#B4F6FC"/>
<path d="M23.5005 25.2754C23.5095 24.8515 23.8334 24.5 24.2024 24.5H27.2081C27.649 24.5 28 24.9032 28 25.4098V29.0902C28 29.5968 27.649 30 27.2081 30H24.2024C23.8334 30 23.5095 29.6692 23.5005 29.2453C23.4915 28.9558 23.6174 28.7077 23.8064 28.563C23.6264 28.4286 23.5005 28.1805 23.5005 27.9117C23.5005 27.6429 23.6264 27.4051 23.8064 27.2603C23.6264 27.1259 23.5005 26.8778 23.5005 26.609C23.5005 26.3402 23.6264 26.1024 23.8064 25.9577C23.6174 25.813 23.4915 25.5545 23.5005 25.2754Z" fill="#FFD7C2"/>
</svg>

<svg xmlns="http://www.w3.org/2000/svg" width="32" height="32" fill="none"><path fill="#0074BA" d="m10.2 10.11-.18.35h11.9l-.17-.33c-.194-.38-.423-.875-.68-1.435-.516-1.118-1.15-2.492-1.861-3.703l2.24.01c.642 0 .928-.83.415-1.22C20 2.5 18.172 2 15.97 2c-1.99 0-3.839 3.99-5.058 6.62-.27.583-.51 1.099-.712 1.49Z"/><path fill="#533566" d="m9.79 10.15-.19.38h12.74l-.18-.36a7.13 7.13 0 0 0-1.19-1.67h-10c-.46.49-.86 1.04-1.18 1.65Z"/><path fill="#00A6ED" d="M22.948 18.5h.604C26 18.5 27.99 16.484 28 14.005c0-2.48-1.99-4.495-4.438-4.495L8.438 9.5C5.99 9.5 4 11.516 4 13.995c0 2.48 1.99 4.495 4.428 4.495h.645a2.604 2.604 0 0 0-.186.39c-.38 1-.12 2.11.671 2.83l.27.24a10.602 10.602 0 0 0-3.957 5.43l-.03.08c-.26.82-.46 1.69-.591 2.54h21.5c-.13-.86-.32-1.74-.581-2.58a10.63 10.63 0 0 0-2.925-4.62c-.331-.31-.692-.59-1.052-.86l.26-.24a2.566 2.566 0 0 0 .671-2.83 2.611 2.611 0 0 0-.175-.37Z"/><path fill="#0074BA" d="M9.065 18h13.87C25.175 18 27 16.436 27 14.51c0-1.936-1.814-3.5-4.065-3.5L9.065 11C6.825 11 5 12.564 5 14.5S6.814 18 9.065 18ZM15.998 18.15l4.68.03c.977 0 1.445 1.21.718 1.87l-5.398 4.93-5.398-4.93c-.717-.66-.26-1.86.717-1.87l4.68-.03Z"/><path fill="#F4C6AD" d="M17.174 21.071H15.07c-.277 0-.554-.02-.82-.071l1.351 2.738c.177.356.731.346.897-.01l1.252-2.687c-.177.02-.377.03-.576.03Z"/><path fill="#D3D3D3" d="M10.71 11.01h.61l2.683-.007L14 11h7.6c.45.88.71 1.88.71 2.94 0 1.58-.64 3.135-1.59 4.255.07-.31.12-.64.13-.98l.181-3.504c.01-.23 0-.45-.03-.67-.142-.743-.607-.404-.902-.19-.098.071-.177.129-.219.129H16.6c-.717 0-1.407-.738-2.004-1.377l-.032-.034a2.334 2.334 0 0 1-.374.211l-.419.143c-.75.207-2.513.693-2.521 1.647v.16l.14 3.4c.02.34.06.67.13.98A6.401 6.401 0 0 1 10 13.95c0-1.06.26-2.06.71-2.94Z"/><path fill="#F4C6AD" d="M12.5 16a1.5 1.5 0 1 1-3 0 1.5 1.5 0 0 1 3 0ZM22.5 16a1.5 1.5 0 1 1-3 0 1.5 1.5 0 0 1 3 0Z"/><path fill="#FFD7C2" d="M11.803 11.777c-.52.33-1.091.908-1.051 1.96l.141 3.41C11.014 20.055 13.265 22 16.001 22c2.736 0 4.987-1.945 5.108-4.853l.141-3.41c0-1.24-.362-1.71-1.04-1.71l-4.385-.156c-.899-.031-1.703-.871-1.703-.871H12.67s-.347.448-.868.777Z"/><path fill="#000" d="M13.27 14.6c.58 0 1.05.4 1.35.85-.217.064-.429.125-.64.184-.477.136-.944.27-1.43.436l-.49-.44c-.2-.18-.18-.51.04-.67.32-.23.76-.36 1.17-.36ZM18.66 14.6c-.58 0-1.05.4-1.35.85.217.064.429.125.639.184.478.136.945.27 1.431.436l.49-.44c.2-.18.18-.51-.04-.67-.32-.23-.76-.36-1.17-.36Z"/><path fill="#fff" d="M12.05 15.79c.16-.63.73-1.09 1.4-1.09.7 0 1.28.5 1.42 1.16.02.15-.09.28-.24.28h-2.3c-.19 0-.32-.17-.28-.35ZM19.88 15.79c-.16-.63-.73-1.09-1.4-1.09-.7 0-1.28.5-1.42 1.16-.02.15.09.28.24.28h2.3c.19 0 .32-.17.28-.35Z"/><path fill="#7D4533" d="M12.74 15.9c0-.51.41-.92.92-.92s.92.41.91.92c0 .08-.01.16-.03.24h-1.77a.928.928 0 0 1-.03-.24ZM19.19 15.9c0-.51-.41-.92-.92-.92s-.92.41-.91.92c0 .08.01.16.03.24h1.77c.02-.07.03-.16.03-.24Z"/><path fill="#000" d="M13.66 15.37c.29 0 .53.24.53.53 0 .09-.02.17-.07.24h-.93a.475.475 0 0 1-.06-.24c0-.29.24-.53.53-.53ZM18.27 15.37c-.29 0-.53.24-.53.53 0 .09.03.17.06.24h.94c.04-.07.06-.15.06-.24 0-.29-.24-.53-.53-.53Z"/><path fill="#fff" d="M13.51 15.53a.16.16 0 1 1-.32 0 .16.16 0 0 1 .32 0ZM18.12 15.53a.16.16 0 1 1-.32 0 .16.16 0 0 1 .32 0Z"/><path fill="#990838" d="M16.003 19.239c-.557 0-1.072-.14-1.505-.377-.145-.087-.31.097-.217.247.371.593 1 .98 1.722.98s1.362-.387 1.723-.98c.093-.15-.062-.323-.217-.247a3.136 3.136 0 0 1-1.506.377Z"/><path fill="#E5AF93" d="m15.643 15.786-.494 1.742c-.104.361.143.722.485.722h.732c.342 0 .59-.36.485-.722l-.494-1.742c-.105-.381-.6-.381-.713 0Z"/><path fill="#9B9B9B" d="m12.448 14.257.005-.003a2.044 2.044 0 0 1 .115-.057 2.81 2.81 0 0 1 .35-.132 2.37 2.37 0 0 1 1.1-.083.296.296 0 1 0 .105-.584 2.962 2.962 0 0 0-1.377.1 3.398 3.398 0 0 0-.425.16l-.167.084-.001.001a.297.297 0 0 0 .295.514ZM19.857 14.148a.297.297 0 0 0-.109-.405h-.001l-.047-.026a3.404 3.404 0 0 0-.546-.22 2.962 2.962 0 0 0-1.377-.099.296.296 0 1 0 .106.584 2.37 2.37 0 0 1 1.099.083 2.81 2.81 0 0 1 .466.19l.004.002a.296.296 0 0 0 .405-.109Z"/><g fill="#F1B99B" opacity=".5"><path d="M14.15 16.689a.291.291 0 0 1 .42.403l-.104.095a1.992 1.992 0 0 1-1.256.446.291.291 0 0 1 0-.583 1.41 1.41 0 0 0 .931-.352l.01-.01ZM17.339 16.68a.291.291 0 0 1 .412.01l.238.173c.165.094.403.187.701.187a.291.291 0 1 1 0 .582 1.993 1.993 0 0 1-1.256-.445l-.104-.095a.291.291 0 0 1 .009-.411Z"/></g><path fill="#F4C6AD" d="M27 23c.555 0 1 .405 1 .91V26h-2v-2.09c0-.505.445-.91 1-.91Z"/><path fill="#F3AD61" d="M27.25 5.3c-.2-.11-.45.04-.45.27v1.62c0 .44-.36.81-.8.8a.786.786 0 0 1-.77-.78V5.57c0-.23-.25-.38-.45-.27-.81.44-1.36 1.29-1.37 2.27-.01 1.01.58 1.9 1.43 2.34.1.05.16.15.16.26v15.91c0 .57.47 1.04 1.04 1.04.57 0 .96-.47.96-1.04V10.17c0-.11.14-.23.24-.28a2.605 2.605 0 0 0 .01-4.59Z"/><path fill="#00D1ED" d="M26 8.97a2.75 2.75 0 1 0 0-5.5 2.75 2.75 0 0 0 0 5.5Z"/><path fill="#B4F6FC" d="M27.69 4.64c.34.46.31 1.06-.07 1.34s-.96.13-1.3-.33c-.35-.46-.32-1.06.06-1.34s.97-.13 1.31.33Z"/><path fill="#FFD7C2" d="M23.5 25.275c.01-.423.333-.775.702-.775h3.006c.441 0 .792.403.792.91v3.68c0 .507-.351.91-.792.91h-3.006c-.369 0-.693-.33-.702-.755a.82.82 0 0 1 .306-.682.824.824 0 0 1-.306-.651.84.84 0 0 1 .306-.652.824.824 0 0 1-.306-.651.84.84 0 0 1 .306-.651.834.834 0 0 1-.306-.683Z"/></svg>
